dist/img/svg/bg/application/wind.svg

<svg width="1241" height="215" viewBox="0 0 1241 215" fill="none" xmlns="http://www.w3.org/2000/svg">
<g opacity="0.3">
<g style="mix-blend-mode:soft-light">
<path fill-rule="evenodd" clip-rule="evenodd" d="M470.899 205.042C470.899 205.042 255.294 196.363 22.9999 139.94L470.899 205.042Z" fill="white"/>
</g>
<g style="mix-blend-mode:soft-light">
<path fill-rule="evenodd" clip-rule="evenodd" d="M1051.2 153.527C1051.2 153.527 830.459 181.102 686.157 170.569L1051.2 153.527Z" fill="white"/>
</g>
<g style="mix-blend-mode:soft-light">
<path fill-rule="evenodd" clip-rule="evenodd" d="M610.222 165.909C610.222 165.909 387.855 172.145 245.23 147.795L610.222 165.909Z" fill="white"/>
</g>
<g style="mix-blend-mode:soft-light">
<path fill-rule="evenodd" clip-rule="evenodd" d="M1241 93.6918C1241 93.6918 1020.26 121.267 875.957 110.734L1241 93.6918Z" fill="white"/>
</g>
<g style="mix-blend-mode:soft-light">
<path fill-rule="evenodd" clip-rule="evenodd" d="M1002.95 123.808C1002.95 123.808 821.198 150.782 636.519 138.391C451.841 126.001 116 19.7615 116 19.7615C116 19.7615 403.447 113.123 637.85 130.717C872.253 148.31 1002.95 123.808 1002.95 123.808Z" fill="white"/>
</g>
<g style="mix-blend-mode:soft-light">
<path fill-rule="evenodd" clip-rule="evenodd" d="M1194.77 162.164C1194.77 162.164 1007.23 182.582 777.531 182.362L971.346 180.05C971.346 180.05 831.117 193.924 720 191.184C720 191.184 1012.02 190.802 1188.31 178.466L1194.77 162.164Z" fill="white"/>
</g>
<path fill-rule="evenodd" clip-rule="evenodd" d="M486.979 77.8448C486.979 77.8448 788.436 66.6781 908.598 86.8099L486.979 77.8448Z" fill="white" style="mix-blend-mode:screen"/>
<path fill-rule="evenodd" clip-rule="evenodd" d="M-48.0001 49.8933C-48.0001 49.8933 253.457 38.7266 373.619 58.8584L-48.0001 49.8933Z" fill="white" style="mix-blend-mode:screen"/>
<g style="mix-blend-mode:soft-light">
<path fill-rule="evenodd" clip-rule="evenodd" d="M354.797 16.883C354.797 16.883 646.336 -3.69098 834.96 24.8069L354.797 16.883Z" fill="white"/>
</g>
<g style="mix-blend-mode:soft-light">
<path fill-rule="evenodd" clip-rule="evenodd" d="M635.455 58.5859C635.455 58.5859 876.343 22.4616 1117.64 63.4403L635.455 58.5859Z" fill="white"/>
</g>
</g>
</svg>

<svg width="1241" height="215" fill="none" xmlns="http://www.w3.org/2000/svg"><g opacity=".3" fill-rule="evenodd" clip-rule="evenodd" fill="#fff"><path d="M470.899 205.042s-215.605-8.679-447.9-65.102l447.9 65.102zm580.301-51.515s-220.741 27.575-365.043 17.042l365.043-17.042zm-440.978 12.382s-222.367 6.236-364.992-18.114l364.992 18.114zM1241 93.692s-220.74 27.575-365.043 17.042L1241 93.692z"/><path d="M1002.95 123.808s-181.752 26.974-366.431 14.583C451.841 126.001 116 19.761 116 19.761s287.447 93.362 521.85 110.956c234.403 17.593 365.1-6.909 365.1-6.909zm191.82 38.356s-187.54 20.418-417.239 20.198l193.815-2.312S831.117 193.924 720 191.184c0 0 292.02-.382 468.31-12.718l6.46-16.302z"/><path d="M486.979 77.845s301.457-11.167 421.619 8.965l-421.619-8.965zM-48 49.893s301.457-11.166 421.619 8.965l-421.62-8.965z" style="mix-blend-mode:screen"/><path d="M354.797 16.883S646.336-3.691 834.96 24.807l-480.163-7.924zm280.658 41.703s240.888-36.124 482.185 4.854l-482.185-4.854z"/></g></svg>
